src/public/img/landing/new/docs-code/github.svg

<svg width="67" height="19" viewBox="0 0 67 19" fill="none" xmlns="http://www.w3.org/2000/svg">
<path d="M28.0891 15.0183H28.0593C28.0727 15.0183 28.0817 15.0332 28.0951 15.0347H28.104L28.0891 15.0198V15.0183ZM28.0951 15.0347C27.9566 15.0362 27.6082 15.1094 27.2404 15.1094C26.0791 15.1094 25.6771 14.5718 25.6771 13.8699V9.19428H28.0444C28.1784 9.19428 28.2827 9.07481 28.2827 8.91054V6.37188C28.2827 6.23748 28.1636 6.11801 28.0444 6.11801H25.6771V2.96708C25.6771 2.84761 25.6027 2.77294 25.4687 2.77294H22.2527C22.1187 2.77294 22.0442 2.84761 22.0442 2.96708V6.20761C22.0442 6.20761 20.4213 6.61081 20.3171 6.62574C20.198 6.65561 20.1236 6.76014 20.1236 6.87961V8.91054C20.1236 9.07481 20.2427 9.19428 20.3767 9.19428H22.0293V14.0924C22.0293 17.7361 24.5604 18.1095 26.2876 18.1095C27.0767 18.1095 28.0296 17.8556 28.1784 17.7809C28.2678 17.7511 28.3124 17.6465 28.3124 17.542V15.302C28.3145 15.2385 28.2936 15.1763 28.2537 15.127C28.2138 15.0776 28.1575 15.0443 28.0951 15.0332V15.0347ZM63.3758 11.7479C63.3758 9.04494 62.2889 8.68654 61.1424 8.80601C60.2491 8.86574 59.5344 9.31374 59.5344 9.31374V14.5703C59.5344 14.5703 60.264 15.078 61.3509 15.1079C62.8844 15.1527 63.3758 14.6001 63.3758 11.7479ZM66.9938 11.5089C66.9938 16.6311 65.3411 18.0945 62.4527 18.0945C60.0109 18.0945 58.7007 16.8551 58.7007 16.8551C58.7007 16.8551 58.6411 17.542 58.5667 17.6316C58.522 17.7212 58.4476 17.7511 58.3582 17.7511H56.1547C56.0058 17.7511 55.8718 17.6316 55.8718 17.4972L55.9016 0.906277C55.9016 0.771877 56.0207 0.65241 56.1547 0.65241H59.326C59.46 0.65241 59.5791 0.771877 59.5791 0.906277V6.53614C59.5791 6.53614 60.8 5.74468 62.5867 5.74468L62.5718 5.71481C64.3584 5.71481 66.9938 6.38681 66.9938 11.5089ZM54.0107 6.11801H50.884C50.7202 6.11801 50.6309 6.23748 50.6309 6.40174V14.5255C50.6309 14.5255 49.812 15.1079 48.6953 15.1079C47.5787 15.1079 47.2511 14.6001 47.2511 13.4801V6.38681C47.2511 6.25241 47.132 6.13294 46.998 6.13294H43.8118C43.6778 6.13294 43.5587 6.25241 43.5587 6.38681V14.0177C43.5587 17.3031 45.39 18.1244 47.9062 18.1244C49.9758 18.1244 51.6582 16.9745 51.6582 16.9745C51.6582 16.9745 51.7327 17.5569 51.7773 17.6465C51.8071 17.7212 51.9113 17.7809 52.0156 17.7809H54.0107C54.1744 17.7809 54.2638 17.6615 54.2638 17.5271L54.2936 6.37188C54.2936 6.23748 54.1744 6.11801 54.0107 6.11801ZM18.724 6.10308H15.5527C15.4187 6.10308 15.2996 6.23748 15.2996 6.40174V17.3628C15.2996 17.6615 15.4931 17.766 15.7462 17.766H18.6049C18.9027 17.766 18.9771 17.6316 18.9771 17.3628V6.35694C18.9771 6.22254 18.858 6.10308 18.724 6.10308ZM17.1607 1.05561C16.0142 1.05561 15.106 1.96654 15.106 3.11641C15.106 4.26628 16.0142 5.17721 17.1607 5.17721C18.2773 5.17721 19.1856 4.26628 19.1856 3.11641C19.1856 1.96654 18.2773 1.05561 17.1607 1.05561ZM41.7124 0.682277H38.5709C38.4369 0.682277 38.3178 0.801743 38.3178 0.936143V7.04388H33.3896V0.936143C33.3896 0.801743 33.2704 0.682277 33.1364 0.682277H29.9651C29.8311 0.682277 29.712 0.801743 29.712 0.936143V17.5271C29.712 17.6615 29.846 17.7809 29.9651 17.7809H33.1364C33.2704 17.7809 33.3896 17.6615 33.3896 17.5271V10.4337H38.3178L38.288 17.5271C38.288 17.6615 38.4071 17.7809 38.5411 17.7809H41.7124C41.8464 17.7809 41.9656 17.6615 41.9656 17.5271V0.936143C41.9656 0.801743 41.8464 0.682277 41.7124 0.682277ZM13.6171 8.02948V16.6012C13.6171 16.6609 13.6022 16.7655 13.5278 16.7953C13.5278 16.7953 11.6667 18.1244 8.59956 18.1244C4.89222 18.1244 0.5 16.9596 0.5 9.28388C0.5 1.60814 4.34133 0.0252099 8.09333 0.0401433C11.3391 0.0401433 12.6493 0.771877 12.8578 0.906277C12.9173 0.980943 12.9471 1.04068 12.9471 1.11534L12.3218 3.77348C12.3218 3.90788 12.1878 4.07214 12.024 4.02734C11.488 3.86308 10.684 3.53454 8.79311 3.53454C6.60444 3.53454 4.252 4.16174 4.252 9.10468C4.252 14.0476 6.48533 14.63 8.09333 14.63C9.46311 14.63 9.95444 14.4657 9.95444 14.4657V11.0311H7.76578C7.602 11.0311 7.48289 10.9116 7.48289 10.7772V8.02948C7.48289 7.89508 7.602 7.77561 7.76578 7.77561H13.3342C13.498 7.77561 13.6171 7.89508 13.6171 8.02948Z" fill="white"/>
</svg>

<svg xmlns="http://www.w3.org/2000/svg" width="67" height="19" fill="none">
  <path fill="#fff" d="M28.09 15.018h-.03c.013 0 .022.015.035.017h.009l-.015-.015v-.002Zm.005.017c-.138.001-.487.074-.855.074-1.16 0-1.563-.537-1.563-1.24V9.195h2.367c.134 0 .239-.12.239-.283V6.37c0-.134-.12-.253-.239-.253h-2.367v-3.15c0-.12-.074-.195-.208-.195h-3.216c-.134 0-.209.075-.209.194v3.24s-1.623.404-1.727.419a.256.256 0 0 0-.193.254v2.03c0 .165.119.284.253.284h1.652v4.898c0 3.644 2.531 4.018 4.259 4.018.789 0 1.742-.254 1.89-.33.09-.029.134-.134.134-.238v-2.24a.264.264 0 0 0-.217-.269v.002Zm35.28-3.287c0-2.703-1.086-3.061-2.233-2.942-.893.06-1.608.508-1.608.508v5.256s.73.508 1.817.538c1.533.045 2.025-.508 2.025-3.36Zm3.619-.24c0 5.123-1.653 6.587-4.541 6.587-2.442 0-3.752-1.24-3.752-1.24s-.06.687-.134.777c-.045.09-.12.12-.209.12h-2.203c-.15 0-.283-.12-.283-.255l.03-16.59c0-.135.119-.255.253-.255h3.171c.134 0 .253.12.253.254v5.63s1.221-.791 3.008-.791l-.015-.03c1.786 0 4.422.672 4.422 5.794ZM54.01 6.119h-3.127c-.164 0-.253.12-.253.284v8.123s-.819.583-1.936.583c-1.116 0-1.444-.508-1.444-1.628V6.387a.261.261 0 0 0-.253-.254h-3.186a.261.261 0 0 0-.253.254v7.63c0 3.286 1.831 4.107 4.347 4.107 2.07 0 3.752-1.15 3.752-1.15s.075.583.12.672c.03.075.133.135.238.135h1.995c.163 0 .253-.12.253-.254l.03-11.155c0-.135-.12-.254-.283-.254Zm-35.287-.015h-3.171c-.134 0-.253.134-.253.299v10.96c0 .3.193.404.446.404h2.859c.298 0 .372-.134.372-.403V6.357a.261.261 0 0 0-.253-.254ZM17.16 1.057c-1.147 0-2.055.91-2.055 2.06s.908 2.061 2.055 2.061c1.116 0 2.025-.91 2.025-2.06s-.909-2.061-2.025-2.061ZM41.712.682h-3.141a.261.261 0 0 0-.253.254v6.108H33.39V.936a.261.261 0 0 0-.254-.254h-3.17a.261.261 0 0 0-.254.254v16.591c0 .134.134.254.253.254h3.171c.134 0 .254-.12.254-.254v-7.093h4.928l-.03 7.093c0 .134.12.254.253.254h3.171c.134 0 .254-.12.254-.254V.937a.261.261 0 0 0-.254-.255ZM13.617 8.03v8.572c0 .06-.015.165-.09.194 0 0-1.86 1.33-4.927 1.33-3.708 0-8.1-1.165-8.1-8.841C.5 1.608 4.341.025 8.093.04c3.246 0 4.556.732 4.765.866.06.075.09.135.09.21l-.626 2.657c0 .135-.134.3-.298.254-.536-.164-1.34-.492-3.23-.492-2.19 0-4.542.627-4.542 5.57 0 4.943 2.233 5.525 3.841 5.525 1.37 0 1.861-.164 1.861-.164V11.03H7.766c-.164 0-.283-.12-.283-.254V8.03c0-.134.119-.253.283-.253h5.568c.164 0 .283.12.283.253Z"/>
</svg>
